icons/src/scalable/default/status/network-cellular-hardware-disabled-symbolic.svg

<?xml version="1.0" encoding="UTF-8" standalone="no"?>
<svg
   xmlns:dc="http://purl.org/dc/elements/1.1/"
   xmlns:cc="http://creativecommons.org/ns#"
   xmlns:rdf="http://www.w3.org/1999/02/22-rdf-syntax-ns#"
   xmlns:svg="http://www.w3.org/2000/svg"
   xmlns="http://www.w3.org/2000/svg"
   xmlns:sodipodi="http://sodipodi.sourceforge.net/DTD/sodipodi-0.dtd"
   xmlns:inkscape="http://www.inkscape.org/namespaces/inkscape"
   height="16"
   width="16"
   version="1.1"
   id="svg833"
   sodipodi:docname="network-cellular-hardware-disabled-symbolic.svg"
   inkscape:version="1.0.2 (e86c870879, 2021-01-15)">
  <metadata
     id="metadata839">
    <rdf:RDF>
      <cc:Work
         rdf:about="">
        <dc:format>image/svg+xml</dc:format>
        <dc:type
           rdf:resource="http://purl.org/dc/dcmitype/StillImage" />
        <dc:title />
      </cc:Work>
    </rdf:RDF>
  </metadata>
  <defs
     id="defs837" />
  <sodipodi:namedview
     pagecolor="#ffffff"
     bordercolor="#666666"
     borderopacity="1"
     objecttolerance="10"
     gridtolerance="10"
     guidetolerance="10"
     inkscape:pageopacity="0"
     inkscape:pageshadow="2"
     inkscape:window-width="1920"
     inkscape:window-height="1043"
     id="namedview835"
     showgrid="true"
     inkscape:zoom="38.890873"
     inkscape:cx="11.554935"
     inkscape:cy="7.8218844"
     inkscape:window-x="1920"
     inkscape:window-y="0"
     inkscape:window-maximized="1"
     inkscape:current-layer="svg833"
     inkscape:document-rotation="0">
    <inkscape:grid
       type="xygrid"
       id="grid1402" />
  </sodipodi:namedview>
  <path
     id="path832"
     style="line-height:normal;font-variant-ligatures:normal;font-variant-position:normal;font-variant-caps:normal;font-variant-numeric:normal;font-variant-alternates:normal;font-feature-settings:normal;text-indent:0;text-align:start;text-decoration:none;text-decoration-line:none;text-decoration-style:solid;text-decoration-color:#000000;text-transform:none;text-orientation:mixed;shape-padding:0;isolation:auto;mix-blend-mode:normal;marker:none;fill:#bebebe;fill-opacity:1;opacity:0.5"
     d="M 15 0.29296875 L 7.2929688 8 L 8.7070312 8 L 14 2.7070312 L 14 8 L 15 8 L 15 0.29296875 z M 4.2929688 11 L 1.1464844 14.146484 L 0.29296875 15 L 15 15 L 15 11 L 14 11 L 14 14 L 2.7070312 14 L 5.7070312 11 L 4.2929688 11 z " />
  <rect
     style="fill:#bebebe;fill-rule:evenodd;stroke:none;stroke-width:2;stroke-linecap:round"
     id="rect2621"
     width="15"
     height="1"
     x="1"
     y="9" />
</svg>

<svg version="1.1" viewBox="0 0 16 16" xmlns="http://www.w3.org/2000/svg">
 <path d="m15 0.29297-7.707 7.707h1.4141l5.293-5.293v5.293h1v-7.707zm-10.707 10.707-3.1465 3.1465-0.85352 0.85352h14.707v-4h-1v3h-11.293l3-3h-1.4141z" fill="#bebebe" opacity=".5" style="font-feature-settings:normal;font-variant-alternates:normal;font-variant-caps:normal;font-variant-ligatures:normal;font-variant-numeric:normal;font-variant-position:normal;isolation:auto;mix-blend-mode:normal;shape-padding:0;text-decoration-color:#000000;text-decoration-line:none;text-decoration-style:solid;text-indent:0;text-orientation:mixed;text-transform:none"/>
 <rect x="1" y="9" width="15" height="1" fill="#bebebe" fill-rule="evenodd"/>
</svg>
